packages/kaspersky-hexa-ui-icons/src/iconsSVGs/28x20/FlagMd.svg

<svg xmlns="http://www.w3.org/2000/svg" width="28" height="20" fill="none" viewBox="0 0 28 20"><g clip-path="url(#a)"><rect width="28" height="20" fill="#fff" rx="2"/><mask id="b" width="28" height="20" x="0" y="0" maskUnits="userSpaceOnUse" style="mask-type:luminance"><rect width="28" height="20" fill="#fff" rx="2"/></mask><g mask="url(#b)"><path fill="#eb1c43" d="M13.3333 0H28v20H13.3333z"/><path fill="#115bcb" fill-rule="evenodd" d="M0 20h9.3333V0H0z" clip-rule="evenodd"/><path fill="#ffd953" fill-rule="evenodd" d="M9.3333 20h9.3334V0H9.3333z" clip-rule="evenodd"/><path fill="#af7f59" fill-rule="evenodd" d="M13.3333 8H12v4l2 1.3333L16 12V8h-1.3333L14 6zm1.3334 3.3333v-2h-1.3334v2z" clip-rule="evenodd"/></g></g><defs><clipPath id="a"><path fill="#fff" d="M0 0h28v20H0z"/></clipPath></defs></svg>

<svg width="28" height="20" viewBox="0 0 28 20" fill="none" xmlns="http://www.w3.org/2000/svg">
<g clip-path="url(#clip0_5138_1499)">
<rect width="28" height="20" rx="2" fill="white"/>
<mask id="mask0_5138_1499" style="mask-type:luminance" maskUnits="userSpaceOnUse" x="0" y="0" width="28" height="20">
<rect width="28" height="20" rx="2" fill="white"/>
</mask>
<g mask="url(#mask0_5138_1499)">
<rect x="13.3333" width="14.6667" height="20" fill="#EB1C43"/>
<path fill-rule="evenodd" clip-rule="evenodd" d="M0 20H9.33333V0H0V20Z" fill="#115BCB"/>
<path fill-rule="evenodd" clip-rule="evenodd" d="M9.33333 20H18.6667V0H9.33333V20Z" fill="#FFD953"/>
<path fill-rule="evenodd" clip-rule="evenodd" d="M13.3333 8H12V12L14 13.3333L16 12V8H14.6667L14 6L13.3333 8ZM14.6667 11.3333V9.33333H13.3333V11.3333H14.6667Z" fill="#AF7F59"/>
</g>
</g>
<defs>
<clipPath id="clip0_5138_1499">
<rect width="28" height="20" fill="white"/>
</clipPath>
</defs>
</svg>
